X: 389
T: Yixixiang zhe maochuxi
L: 1/16
M: 2/4
K: C
e2 d e2< G2 A [I:setbarnb 1]| 
c2 c d c A2 G | 
e2 G2 A G E2 | 
d8 | 
e2 d e2< G2 A | 
c2 c d c A2 G | 
e2 G2 A G E2 | 
G8 |]

@@@ Tune index: 9263
